X: 26019
T: Mazurka Des Crayons
R: mazurka
M: 3/4
K: Dminor
DE|:F2 E^C A,2|B,2 B,/C/B,/A,/ B,C|DE FD GF|EF D^C DE|
F2 E^C A,2|B,2 B,/C/B,/A,/ B,C|DE FD EF|1 D2 D^C DE:|2 D3 dAF||
|:=BA GF ED|C=B, CD EF|GF EG FE|FE Dd AF|
=BA GF ED|C=B, CD EF|GF EG FE|1 D3 dAF:|2 D6||
|:A2 BA GF|E2 D4|d2 _ed cB|A2 G4|G^F GA BG|
AF DF DF|EF GF EF|1 DE FE DF/G/:|2 D2 D^C DE||D6||

